X:6668
T:Hag in the Blanket
S:Treoir, 1993 (from Jack Wade)
I:speed 250
M:6/8
K:G
G || A2B cBc | EFE c2A | B2G AFD | GAG BAG | 
A2B cBc EFE c2A | BdB cAF G3 BAG |
FGA AFd | AFd AFd | FGA AFd | GAG BAG |
FGA AFd | AFd ABc | BdB cAF | G3 BAG |
FGA AFD | DED AFD | FGA AFD | GAG BAG |
FGA AFD | DED ABc | BdB cBA | G3 BAG||
